rospo-dark/16x16/actions/align-horizontal-bottom-out.svg

<svg height="16" viewBox="0 0 16 16" width="16" xmlns="http://www.w3.org/2000/svg"><path d="m9 1v7h5v-7zm-7 2v5h5v-5zm-1 7v2h14v-2zm8 3v2h5v-2z" fill="#d3dae3"/></svg>

<?xml version="1.0" encoding="UTF-8" standalone="no"?>
<svg xmlns="http://www.w3.org/2000/svg" width="22" height="22" viewBox="0 0 22 22">
 <defs>
  <style type="text/css" id="current-color-scheme">
   .ColorScheme-Text { color:#d3dae3; } .ColorScheme-Highlight { color:#5294e2; }
  </style>
 </defs>
 <path style="fill:currentColor;opacity:1" class="ColorScheme-Text" transform="translate(3 3)" d="M 9 1 L 9 8 L 14 8 L 14 1 L 9 1 z M 2 3 L 2 8 L 7 8 L 7 3 L 2 3 z M 1 10 L 1 12 L 15 12 L 15 10 L 1 10 z M 9 13 L 9 15 L 14 15 L 14 13 L 9 13 z"/>
</svg>
